X: 151
T: Run, Johnny, Run
C:Kenny Baker's version
B: canberra pickers and fiddlers
B: old time tunes update
B: tunes
M:4/4
L:1/8
Q: 1/4=100
K:D
V:1 
|: A2-| A"D"F (3ABc d2 dA | "A"cdec "D"dBAF | DFAd Bcde |
[1 "A"fdec "D"d2 :|[2"A"fdec "D"d2(a2||"D"a)bag fdAa |
"A"eceg "D"fefg | abag fedf |[1 "A"ec (3ABc d2"D"A2 :| [2 "A"ecAc "D"d2 |]
W: Johnny came down to the moonshine still in the bottom of the holler at the foot of the hill;
W: He woke up about the break of day and he thought he heard his grandpa say:
W: 
W: Refrain:
W: Run, Johnny, Run, the Federals'll get you,
W: Run, Johnny, Run, you'd better get away.
W: 
W: Johnny stopped at the top of the hill and he saw them Federals around his still;
W: They busted his coil and his boiler too, started drinking his mountain dew.
W: 
W: The Feds caught Johnny makin' a run and they took him up to Washington;
W: Set him to work for the government makin' moonshine for the President.
W: 
W: Johnny got rich at the government stills and he run away to his home in the hills;
W: Now the Federals are on his tracks, he still owes a dollar on the whiskey tax.
% abcbook-tune_id 67a7d9ecb4fcea5316f456ec
% abcbook-tune_composer_id 
% abcbook-link-0 https://www.youtube.com/watch?v=08AgKTfRNEo
% abcbook-link-title-0 Run, Johnny Run
% abcbook-boost 0
% abcbook-difficulty 0
% abcbook-tags old time tunes
% abcbook-tablature 
% abcbook-transpose 
% abcbook-tuning ADAE
% abcbook-lastupdated 1739220791612
% abcbook-src-url 
% abcbook-soundfonts 
% abcbook-repeats 1


